X:4018
T:Marquis Of Huntley's Reel. HSJJ.172
O:england
M:2/4
L:1/8
Q:200
S:HSJ Jackson,Wyresdale,Lancs.1823
R:Reel
A:Lancashire
H:1823
K:C
EAA>G|EAA>B|G>AB>c|d/c/B/A/ GB|EAA>G|EAA>a|gd e/d/c/B/|A2A2:|
|:a>bc'b|bgae|gdeg|G>AB>G|a>bc'a|bgae|a>b c'/b/a/g/|a2aa/b/|
c'abg|aeg>e|dBgB|G>ABG|EAA>G|DAA>a|gd e/d/c/B/|A2A2:|]


